X: 13171
T: Had away frae me Donald
%R: march, reel
B: James Oswald "The Caledonian Pocket Companion" v.1 b.3 p.17 #1
S: https://ia800501.us.archive.org/18/items/caledonianpocket01rugg/caledonianpocket01rugg_bw.pdf
Z: 2020 John Chambers <jc:trillian.mit.edu>
M: C
L: 1/8
K: C
%%slurgraces 1
%%graceslurs 1
|: "_Mod.ly Quick"\
c2A2 Tc4 | (GE)(DE) G4 | c2A2 (GA) (cd) | {cd}e4 Td2c2 ::\
d2e2 g3a | g2eg Td2c2 | d2e2 g2(ag) | Te4 d2c2 |
(dc)(de) g4 | (ag)(eg) a4 | Tc2A2 (GA) (cd) | e4 Td2c2 ::\
cdAc (GA)c2 | (GE)(DE) G2(ed) | c2(AG) (Ac) (ag) | Te4 d2c2 :|
|:\
dcde gea2 | (ge)a2 (ge)(dc) | dcde geag | Te4 d2c2 |\
dcde g2(eg) | a2(ge) (ge)(dc) | AGAc (GA) (ag) | Te4 d2c2 :|


